src/icons/editor/glyph/CodeFillIcon.svg

<svg width="24" height="24" viewBox="0 0 24 24" fill="none" xmlns="http://www.w3.org/2000/svg">
<path fill-rule="evenodd" clip-rule="evenodd" d="M2 5C2 3.34315 3.34315 2 5 2H19C20.6569 2 22 3.34315 22 5V19C22 20.6569 20.6569 22 19 22H5C3.34315 22 2 20.6569 2 19V5ZM14.4142 7.41431L13 8.82852L16.1716 12.0001L13 15.1715L14.4142 16.5858L19 12.0001L14.4142 7.41431ZM11 8.82852L9.58579 7.41431L5 12.0001L9.58579 16.5858L11 15.1715L7.8284 12.0001L11 8.82852Z" fill="currentColor"/>
</svg>

<svg xmlns="http://www.w3.org/2000/svg" width="24" height="24" fill="currentColor" viewBox="0 0 24 24">
  <path fill-rule="evenodd" d="M2 5a3 3 0 0 1 3-3h14a3 3 0 0 1 3 3v14a3 3 0 0 1-3 3H5a3 3 0 0 1-3-3V5Zm12.414 2.414L13 8.83 16.172 12 13 15.171l1.414 1.415L19 12l-4.586-4.586ZM11 8.83 9.586 7.414 5 12l4.586 4.586L11 15.172 7.828 12 11 8.83Z" clip-rule="evenodd"/>
</svg>
